Numix-Circle/48x48/apps/google-webdesigner.svg

<?xml version="1.0" encoding="UTF-8" standalone="no"?>
<svg
   xmlns:dc="http://purl.org/dc/elements/1.1/"
   xmlns:cc="http://creativecommons.org/ns#"
   xmlns:rdf="http://www.w3.org/1999/02/22-rdf-syntax-ns#"
   xmlns:svg="http://www.w3.org/2000/svg"
   xmlns="http://www.w3.org/2000/svg"
   xmlns:xlink="http://www.w3.org/1999/xlink"
   xmlns:sodipodi="http://sodipodi.sourceforge.net/DTD/sodipodi-0.dtd"
   xmlns:inkscape="http://www.inkscape.org/namespaces/inkscape"
   viewBox="0 0 48 48"
   id="svg2"
   version="1.1"
   inkscape:version="0.48.5 r10040"
   width="100%"
   height="100%"
   sodipodi:docname="google-webdesigner.svg">
  <metadata
     id="metadata48">
    <rdf:RDF>
      <cc:Work
         rdf:about="">
        <dc:format>image/svg+xml</dc:format>
        <dc:type
           rdf:resource="http://purl.org/dc/dcmitype/StillImage" />
      </cc:Work>
    </rdf:RDF>
  </metadata>
  <sodipodi:namedview
     pagecolor="#ffffff"
     bordercolor="#666666"
     borderopacity="1"
     objecttolerance="10"
     gridtolerance="10"
     guidetolerance="10"
     inkscape:pageopacity="0"
     inkscape:pageshadow="2"
     inkscape:window-width="1280"
     inkscape:window-height="998"
     id="namedview46"
     showgrid="true"
     inkscape:zoom="11.313708"
     inkscape:cx="31.024355"
     inkscape:cy="23.231386"
     inkscape:window-x="0"
     inkscape:window-y="0"
     inkscape:window-maximized="1"
     inkscape:current-layer="svg2">
    <inkscape:grid
       type="xygrid"
       id="grid3045" />
  </sodipodi:namedview>
  <defs
     id="defs4">
    <linearGradient
       id="linearGradient3787">
      <stop
         style="stop-color:#e4e4e4;stop-opacity:0.85087717;"
         offset="0"
         id="stop3789" />
      <stop
         style="stop-color:#eeeeee;stop-opacity:0.8509804;"
         offset="1"
         id="stop3791" />
    </linearGradient>
    <clipPath
       id="clipPath6">
      <g
         transform="translate(0,-1004.3622)"
         id="g8">
        <path
           d="m -24 13 c 0 1.105 -0.672 2 -1.5 2 -0.828 0 -1.5 -0.895 -1.5 -2 0 -1.105 0.672 -2 1.5 -2 0.828 0 1.5 0.895 1.5 2 z"
           transform="matrix(15.333333,0,0,11.5,414.99999,878.8622)"
           fill="#1890d0"
           id="path10" />
      </g>
    </clipPath>
    <clipPath
       id="clipPath12">
      <g
         transform="translate(0,-1004.3622)"
         id="g14">
        <path
           d="m -24 13 c 0 1.105 -0.672 2 -1.5 2 -0.828 0 -1.5 -0.895 -1.5 -2 0 -1.105 0.672 -2 1.5 -2 0.828 0 1.5 0.895 1.5 2 z"
           transform="matrix(15.333333,0,0,11.5,414.99999,878.8622)"
           fill="#1890d0"
           id="path16" />
      </g>
    </clipPath>
    <linearGradient
       inkscape:collect="always"
       xlink:href="#linearGradient3787"
       id="linearGradient3793"
       x1="1"
       y1="24"
       x2="47"
       y2="24"
       gradientUnits="userSpaceOnUse"
       gradientTransform="matrix(0,-1,1,0,0,48)" />
    <linearGradient
       inkscape:collect="always"
       xlink:href="#linearGradient3787"
       id="linearGradient3809"
       gradientUnits="userSpaceOnUse"
       gradientTransform="matrix(0,-1,1,0,31,43)"
       x1="1"
       y1="24"
       x2="47"
       y2="24" />
    <linearGradient
       inkscape:collect="always"
       xlink:href="#linearGradient3787"
       id="linearGradient3016"
       gradientUnits="userSpaceOnUse"
       gradientTransform="matrix(0,-1,1,0,0,48)"
       x1="1"
       y1="24"
       x2="47"
       y2="24" />
    <linearGradient
       inkscape:collect="always"
       xlink:href="#linearGradient3787"
       id="linearGradient3021"
       gradientUnits="userSpaceOnUse"
       gradientTransform="matrix(0,-1,1,0,0,48)"
       x1="1"
       y1="24"
       x2="47"
       y2="24" />
    <linearGradient
       inkscape:collect="always"
       xlink:href="#linearGradient3787"
       id="linearGradient3024"
       gradientUnits="userSpaceOnUse"
       gradientTransform="matrix(0,-1,1,0,0,48)"
       x1="1"
       y1="24"
       x2="47"
       y2="24" />
  </defs>
  <path
     d="m 36.31,5 c 5.859,4.062 9.688,10.831 9.688,18.5 0,12.426 -10.07,22.5 -22.5,22.5 -7.669,0 -14.438,-3.828 -18.5,-9.688 1.037,1.822 2.306,3.499 3.781,4.969 4.085,3.712 9.514,5.969 15.469,5.969 12.703,0 23,-10.298 23,-23 0,-5.954 -2.256,-11.384 -5.969,-15.469 C 39.81,7.306 38.132,6.037 36.31,5 z m 4.969,3.781 c 3.854,4.113 6.219,9.637 6.219,15.719 0,12.703 -10.297,23 -23,23 -6.081,0 -11.606,-2.364 -15.719,-6.219 4.16,4.144 9.883,6.719 16.219,6.719 12.703,0 23,-10.298 23,-23 0,-6.335 -2.575,-12.06 -6.719,-16.219 z"
     opacity="0.05"
     id="path18" />
  <path
     d="m 41.28 8.781 c 3.712 4.085 5.969 9.514 5.969 15.469 0 12.703 -10.297 23 -23 23 -5.954 0 -11.384 -2.256 -15.469 -5.969 4.113 3.854 9.637 6.219 15.719 6.219 12.703 0 23 -10.298 23 -23 0 -6.081 -2.364 -11.606 -6.219 -15.719 z"
     opacity="0.1"
     id="path20" />
  <path
     d="M 31.25,2.375 C 39.865,5.529 46,13.792 46,23.505 c 0,12.426 -10.07,22.5 -22.5,22.5 -9.708,0 -17.971,-6.135 -21.12,-14.75 a 23,23 0 0 0 44.875,-7 23,23 0 0 0 -16,-21.875 z"
     opacity="0.2"
     id="path22" />
  <path
     style="fill:url(#linearGradient3024);fill-opacity:1"
     d="M 24 14 C 18.477153 14 14 18.477153 14 24 C 14 29.522847 18.477153 34 24 34 C 29.522847 34 34 29.522847 34 24 C 34 18.477153 29.522847 14 24 14 z "
     id="path3025" />
  <path
     style="fill:#f3b500;fill-opacity:1;fill-rule:nonzero;stroke:none"
     d="M 1 24 C 1 36.703 11.297 47 24 47 L 24 34 C 18.477153 34 14 29.522847 14 24 L 1 24 z "
     id="rect3004" />
  <path
     id="path3017"
     d="M 24,47 C 36.703,47 47,36.703 47,24 l -13,0 c 0,5.522847 -4.477153,10 -10,10 l 0,13 z"
     style="fill:#cccccc;fill-opacity:1;fill-rule:nonzero;stroke:none"
     inkscape:connector-curvature="0" />
  <path
     inkscape:connector-curvature="0"
     style="fill:#db4534;fill-opacity:1;fill-rule:nonzero;stroke:none"
     d="M 47,24 C 47,11.297 36.703,1 24,1 l 0,13 c 5.522847,0 10,4.477153 10,10 l 13,0 z"
     id="path3015" />
  <path
     d="m 40.03,7.531 c 3.712,4.084 5.969,9.514 5.969,15.469 0,12.703 -10.297,23 -23,23 C 17.045,46 11.615,43.744 7.53,40.031 11.708,44.322 17.54,47 23.999,47 c 12.703,0 23,-10.298 23,-23 0,-6.462 -2.677,-12.291 -6.969,-16.469 z"
     opacity="0.1"
     id="path44" />
  <path
     id="path3013"
     d="M 24,1 C 11.297,1 1,11.297 1,24 l 13,0 C 14,18.477153 18.477153,14 24,14 L 24,1 z"
     style="fill:#4480f6;fill-opacity:1;fill-rule:nonzero;stroke:none"
     inkscape:connector-curvature="0" />
  <path
     style="fill:#000000;fill-opacity:1;fill-rule:nonzero;stroke:none;opacity:0.1"
     d="m 24,14 c -5.522847,0 -10,4.477153 -10,10 0,2.930094 1.273282,5.546006 3.28125,7.375 C 15.854691,29.64641 15,27.416246 15,25 c 0,-5.522847 4.477153,-10 10,-10 2.416246,0 4.64641,0.854691 6.375,2.28125 C 29.546006,15.273282 26.930094,14 24,14 z"
     id="path3834"
     inkscape:connector-curvature="0"
     sodipodi:nodetypes="sscsscs" />
</svg>

<svg xmlns="http://www.w3.org/2000/svg" viewBox="0 0 48 48">
 <defs>
  <linearGradient id="linearGradient3024" gradientUnits="userSpaceOnUse" gradientTransform="matrix(0,-1,1,0,0,48)" x1="1" x2="47">
   <stop style="stop-color:#e4e4e4;stop-opacity:0.851"/>
   <stop offset="1" style="stop-color:#eee;stop-opacity:0.851"/>
  </linearGradient>
 </defs>
 <path d="m 36.31,5 c 5.859,4.062 9.688,10.831 9.688,18.5 0,12.426 -10.07,22.5 -22.5,22.5 -7.669,0 -14.438,-3.828 -18.5,-9.688 1.037,1.822 2.306,3.499 3.781,4.969 4.085,3.712 9.514,5.969 15.469,5.969 12.703,0 23,-10.298 23,-23 0,-5.954 -2.256,-11.384 -5.969,-15.469 C 39.81,7.306 38.132,6.037 36.31,5 z m 4.969,3.781 c 3.854,4.113 6.219,9.637 6.219,15.719 0,12.703 -10.297,23 -23,23 -6.081,0 -11.606,-2.364 -15.719,-6.219 4.16,4.144 9.883,6.719 16.219,6.719 12.703,0 23,-10.298 23,-23 0,-6.335 -2.575,-12.06 -6.719,-16.219 z" style="opacity:0.05"/>
 <path d="m 41.28 8.781 c 3.712 4.085 5.969 9.514 5.969 15.469 0 12.703 -10.297 23 -23 23 -5.954 0 -11.384 -2.256 -15.469 -5.969 4.113 3.854 9.637 6.219 15.719 6.219 12.703 0 23 -10.298 23 -23 0 -6.081 -2.364 -11.606 -6.219 -15.719 z" style="opacity:0.1"/>
 <path d="M 31.25,2.375 C 39.865,5.529 46,13.792 46,23.505 c 0,12.426 -10.07,22.5 -22.5,22.5 -9.708,0 -17.971,-6.135 -21.12,-14.75 a 23,23 0 0 0 44.875,-7 23,23 0 0 0 -16,-21.875 z" style="opacity:0.2"/>
 <path d="m 24 14 c -5.523 0 -10 4.477 -10 10 c 0 5.523 4.477 10 10 10 c 5.523 0 10 -4.477 10 -10 c 0 -5.523 -4.477 -10 -10 -10 z" style="fill:url(#linearGradient3024);fill-opacity:1"/>
 <path d="m 1 24 c 0 12.703 10.297 23 23 23 l 0 -13 c -5.523 0 -10 -4.477 -10 -10 l -13 0 z" style="fill:#f3b500;fill-opacity:1;stroke:none;fill-rule:nonzero"/>
 <path d="m 24 47 c 12.703 0 23 -10.297 23 -23 l -13 0 c 0 5.523 -4.477 10 -10 10 l 0 13 z" style="fill:#ccc;fill-opacity:1;stroke:none;fill-rule:nonzero"/>
 <path d="m 47 24 c 0 -12.703 -10.297 -23 -23 -23 l 0 13 c 5.523 0 10 4.477 10 10 l 13 0 z" style="fill:#db4534;fill-opacity:1;stroke:none;fill-rule:nonzero"/>
 <path d="m 40.03,7.531 c 3.712,4.084 5.969,9.514 5.969,15.469 0,12.703 -10.297,23 -23,23 C 17.045,46 11.615,43.744 7.53,40.031 11.708,44.322 17.54,47 23.999,47 c 12.703,0 23,-10.298 23,-23 0,-6.462 -2.677,-12.291 -6.969,-16.469 z" style="opacity:0.1"/>
 <path d="m 24 1 c -12.703 0 -23 10.297 -23 23 l 13 0 c 0 -5.523 4.477 -10 10 -10 l 0 -13 z" style="fill:#4480f6;fill-opacity:1;stroke:none;fill-rule:nonzero"/>
 <path d="m 24 14 c -5.523 0 -10 4.477 -10 10 0 2.93 1.273 5.546 3.281 7.375 c -1.427 -1.729 -2.281 -3.959 -2.281 -6.375 c 0 -5.523 4.477 -10 10 -10 2.416 0 4.646 0.855 6.375 2.281 c -1.829 -2.01 -4.445 -3.281 -7.375 -3.281 z" style="fill:#000;opacity:0.1;fill-opacity:1;stroke:none;fill-rule:nonzero"/>
</svg>
